src/shared/assets/feed/icon/Frame 2117132466-1.svg

<svg width="36" height="36" viewBox="0 0 36 36" fill="none" xmlns="http://www.w3.org/2000/svg">
<path d="M25.7989 22.7771C27.1798 20.8869 27.7967 18.5453 27.5261 16.2201C27.2556 13.8949 26.1176 11.7574 24.3397 10.2348C22.5617 8.71221 20.2746 7.91658 17.9355 8.00693C15.5963 8.09729 13.3775 9.06697 11.7222 10.7222C10.067 12.3775 9.09729 14.5963 9.00693 16.9355C8.91658 19.2746 9.71221 21.5617 11.2348 23.3397C12.7574 25.1176 14.8949 26.2556 17.2201 26.5261C19.5453 26.7967 21.8869 26.1798 23.7771 24.7989L26.5768 27.5986C26.8464 27.8591 27.2076 28.0032 27.5825 27.9999C27.9575 27.9967 28.3161 27.8463 28.5812 27.5812C28.8463 27.3161 28.9967 26.9575 28.9999 26.5825C29.0032 26.2076 28.8591 25.8464 28.5986 25.5768L25.7989 22.7771ZM22.8434 12.7436C24.0997 14 24.7279 15.5166 24.7279 17.2935C24.7279 19.0703 24.0997 20.587 22.8434 21.8434C21.587 23.0997 20.0703 23.7279 18.2935 23.7279C16.5166 23.7279 15 23.0997 13.7436 21.8434C12.4872 20.587 11.859 19.0703 11.859 17.2935C11.859 15.5166 12.4872 14 13.7436 12.7436C15 11.4872 16.5166 10.859 18.2935 10.859C20.0703 10.859 21.587 11.4872 22.8434 12.7436Z" fill="black" fill-opacity="0.3"/>
</svg>

<svg xmlns="http://www.w3.org/2000/svg" fill="none" viewBox="0 0 36 36"><path fill="#000" fill-opacity=".3" d="M25.799 22.777a9.294 9.294 0 1 0-2.022 2.022l2.8 2.8a1.43 1.43 0 0 0 2.022-2.022zm-2.956-10.033q1.885 1.884 1.885 4.55 0 2.664-1.885 4.55-1.884 1.884-4.55 1.884-2.664 0-4.55-1.885-1.884-1.884-1.884-4.55 0-2.664 1.885-4.55 1.884-1.884 4.55-1.884 2.664 0 4.55 1.885"/></svg>
